usr/share/icons/big-icons/symbolic/actions/mode5.svg

<svg xmlns="http://www.w3.org/2000/svg" viewBox="0 0 16 16">
<defs id="defs3051">
<style id="current-color-scheme" type="text/css">
.ColorScheme-Text{color:#fcfcfc}.ColorScheme-Highlight{color:#3daee9}
</style>
</defs>
<path d="M2 2v1h5V2zm7 0v1h5V2zM2 5v1h5V5zm7 0v1h5V5z" class="ColorScheme-Text" style="fill:currentColor;fill-opacity:1;stroke:none"/>
<path d="M6 7 4 8.5 6 10V9h2c.554 0 1 .446 1 1v1c0 1.108.892 2 2 2h2v-1h-2c-.554 0-1-.446-1-1v-1c0-1.108-.892-2-2-2H6zm6 0v1h-1v1h1v1l2-1.5zm-7 5v1h3v-1z" class="ColorScheme-Highlight" style="fill:currentColor;fill-opacity:1;stroke:none"/>
</svg>

<svg xmlns="http://www.w3.org/2000/svg" viewBox="0 0 16 16">
  <defs id="defs3051">
    <style type="text/css" id="current-color-scheme">
      .ColorScheme-Text {
        color:#eff0f1;
      }
      .ColorScheme-Highlight {
        color:#3daee9;
      }
      </style>
  </defs>
  <path 
        style="fill:currentColor;fill-opacity:1;stroke:none"
        d="M 2,2 2,3 7,3 7,2 2,2 Z M 9,2 9,3 14,3 14,2 9,2 Z M 2,5 2,6 7,6 7,5 2,5 Z m 7,0 0,1 5,0 0,-1 -5,0 z"
        class="ColorScheme-Text"
        />
  <path
        style="fill:currentColor;fill-opacity:1;stroke:none"
        d="M 6 7 L 4 8.5 L 6 10 L 6 9 L 8 9 C 8.554 9 9 9.446 9 10 L 9 11 C 9 12.108 9.892 13 11 13 L 13 13 L 13 12 L 11 12 C 10.446 12 10 11.554 10 11 L 10 10 C 10 8.892 9.108 8 8 8 L 6 8 L 6 7 z M 12 7 L 12 8 L 11 8 L 11 9 L 12 9 L 12 10 L 14 8.5 L 12 7 z M 5 12 L 5 13 L 8 13 L 8 12 L 5 12 z "
        class="ColorScheme-Highlight"
      />
</svg>
